img/content/search.svg

<svg width="32" height="32" viewBox="0 0 32 32" fill="none" xmlns="http://www.w3.org/2000/svg">
	<path fill-rule="evenodd" clip-rule="evenodd" d="M19.2695 16.6226L19.9844 16.2863L26.6279 18.6869L25.9138 20.6694L19.2655 18.2821L18.9292 17.5672L18.5657 17.4288C17.9512 18.8008 16.8631 19.9646 15.4062 20.6499C12.1577 22.1779 8.28582 20.7832 6.75781 17.5347C5.22979 14.2861 6.62446 10.4142 9.87304 8.88624C13.1216 7.35823 16.9935 8.75289 18.5215 12.0015C19.2067 13.4584 19.3028 15.0487 18.9012 16.4974L19.2695 16.6226ZM8.5676 16.6834C9.62742 18.9366 12.3018 19.8999 14.555 18.8401C16.8082 17.7803 17.7715 15.1059 16.7117 12.8527C15.6519 10.5995 12.9775 9.63621 10.7243 10.696C8.47111 11.7559 7.50778 14.4302 8.5676 16.6834Z" fill="white"/>
</svg>

<svg width="32" height="32" viewBox="0 0 32 32" xmlns="http://www.w3.org/2000/svg"><path fill-rule="evenodd" clip-rule="evenodd" d="M19.27 16.623l.714-.337 6.644 2.4-.714 1.983-6.649-2.387-.336-.715-.363-.138a6.472 6.472 0 01-3.16 3.22 6.5 6.5 0 113.115-8.648 6.471 6.471 0 01.38 4.496l.369.126zm-10.702.06a4.494 4.494 0 005.987 2.157 4.494 4.494 0 002.157-5.987 4.494 4.494 0 00-5.988-2.157 4.494 4.494 0 00-2.156 5.987z" fill="#fff"/></svg>
